public/img/mask.svg

<svg width="307" height="355" fill="none" fill-rule="evenodd" clip-rule="evenodd" xmlns="http://www.w3.org/2000/svg"><path d="M205.5 411C92.236 411 0 318.764 0 205.5S92.236 0 205.5 0 411 92.236 411 205.5c0 65.862-31.188 124.613-79.562 162.254 2.343-2.36 3.857-5.553 4.083-9.176.479-3.827.479-6.697.479-10.045v-4.784a132.716 132.716 0 00-1.56-17.848C363.927 294.343 382 251.99 382 205.5 382 108.186 302.814 29 205.5 29S29 108.186 29 205.5c0 46.877 18.375 89.547 48.299 121.186a129.846 129.846 0 00-1.252 21.847c0 2.87 0 6.218.479 10.045.478 8.132 7.18 13.873 15.32 13.394 8.138-.478 13.882-7.175 13.404-15.307a46.578 46.578 0 01-.471-6.302C133.361 370.298 168.091 382 205.5 382c37.857 0 72.971-11.984 101.747-32.357-.04.825-.116 1.693-.194 2.589-.125 1.432-.256 2.932-.256 4.433-.479 7.653 5.266 14.829 13.405 15.307h.957a14.58 14.58 0 007.212-1.878C294.07 395.773 251.521 411 205.5 411zm101.747-61.357a177.997 177.997 0 0027.193-23.742c-9.934-63.534-65.27-111.189-131.05-109.874-64.801 1.286-117.292 49.084-126.091 110.659a177.869 177.869 0 0027.48 23.677c-.008-.62-.008-1.225-.008-1.83v-4.306c.957-55.968 47.395-100.456 103.407-99.02 56.012.956 100.534 47.357 99.098 103.326 0 .359-.011.73-.029 1.11zm21.124 20.451c1.03-.77 2.052-1.551 3.067-2.34a14.14 14.14 0 01-3.067 2.34zM147 142.5c0 31.839 25.661 57.5 57.5 57.5s57.5-25.661 57.5-57.5S236.339 85 204.5 85 147 110.661 147 142.5zm58.5-28.5c-16.443 0-29.5 13.057-29.5 29.5 0 16.443 13.057 29.5 29.5 29.5 16.443 0 29.5-13.057 29.5-29.5 0-16.443-13.057-29.5-29.5-29.5z" fill="#F9FAFF" stroke="#cfc7c7"/></svg>

<svg width="307" height="355" viewBox="0 0 307 355" fill="none"  fill-rule="evenodd" clip-rule="evenodd" xmlns="http://www.w3.org/2000/svg">

<path  style="stroke:#cfc7c7" d="M205.5 411C92.236 411 0 318.764 0 205.5C0 92.236 92.236 0 205.5 0C318.764 0 411 92.236 411 205.5C411 271.362 379.812 330.113 331.438 367.754C333.781 365.394 335.295 362.201 335.521 358.578C336 354.751 336 351.881 336 348.533V343.749C335.879 337.683 335.35 331.725 334.44 325.901C363.927 294.343 382 251.99 382 205.5C382 108.186 302.814 29 205.5 29C108.186 29 29 108.186 29 205.5C29 252.377 47.3746 295.047 77.2988 326.686C76.282 333.801 75.8485 341.1 76.0469 348.533C76.0469 351.403 76.0469 354.751 76.5256 358.578C77.0044 366.71 83.7067 372.451 91.8452 371.972C99.9836 371.494 105.728 364.797 105.25 356.665C104.892 354.163 104.802 352.196 104.779 350.363C133.361 370.298 168.091 382 205.5 382C243.357 382 278.471 370.016 307.247 349.643C307.207 350.468 307.131 351.336 307.053 352.232C306.928 353.664 306.797 355.164 306.797 356.665C306.318 364.318 312.063 371.494 320.202 371.972H321.159C323.791 371.972 326.253 371.294 328.371 370.094C294.07 395.773 251.521 411 205.5 411ZM307.247 349.643C317.103 342.665 326.215 334.703 334.44 325.901C324.506 262.367 269.17 214.712 203.39 216.027C138.589 217.313 86.0983 265.111 77.2988 326.686C85.6155 335.48 94.8243 343.421 104.779 350.363C104.771 349.743 104.771 349.138 104.771 348.533V344.227C105.728 288.259 152.166 243.771 208.178 245.207C264.19 246.163 308.712 292.564 307.276 348.533C307.276 348.892 307.265 349.263 307.247 349.643ZM328.371 370.094C329.401 369.324 330.423 368.543 331.438 367.754C330.531 368.667 329.5 369.455 328.371 370.094ZM147 142.5C147 174.339 172.661 200 204.5 200C236.339 200 262 174.339 262 142.5C262 110.661 236.339 85 204.5 85C172.661 85 147 110.661 147 142.5ZM205.5 114C189.057 114 176 127.057 176 143.5C176 159.943 189.057 173 205.5 173C221.943 173 235 159.943 235 143.5C235 127.057 221.943 114 205.5 114Z" fill="#F9FAFF" />


</svg>

<!-- #F9FAFF -->
